X: 337
T:Banks of the Allan
% Nottingham Music Database
S:Wolfstone, Arr EF/HJF
M:6/8
K:D
"D"F3 "A7/e"FED|"D/f+"FAA A2d|"G"Bdd "D/f+"Add|"G"Bdd "A7"Add|
"D"F3 "A7/e"FED|"D/f+"FAA A2d|"G"BdB "D/f+"AFD|"Em"FEE "A"E3:|
"D"f3 fed|"Bm"faa "A"a2f|"D/g"fgf fed|"Em"gbb "A7"bag|
"D"fga "A/c+"eff|"Bm"dff fed|"G"BdB "D/f+"AFD|"Em"FEE "A"E3:|


